X: 8414
T: Cowboy, The
R: jig
M: 6/8
K: Amajor
AEFA2B|cag aec|Bcd c2B|c2c BAF|
AEFA2B|cag aec|Bcd c2B|1 cAA A2B:|2 cAA Ace||
f3 fec|fag fec|e3 e2c|eaf ecA|
d2e f2e|fac B2f|ecA c2B|1 cAA Ace:|2 cAA A2B||

